X:1
T:Title
%%score { ( 1 4 ) | ( 2 3 ) }
L:1/8
M:6/8
K:Eb
V:1 treble nm="Grand Piano"
V:4 treble 
V:2 bass 
V:3 bass 
V:1
 z3 z2[Q:1/4=75] E | G>FG [FA]2 [FA] |[M:5/8] [FA]>[EG][FA] [GB]2 |[M:1/8] [GB] | %4
[M:3/4] c>A cc- c/d/e | [GB]4- [GB][EG] |[M:5/8] [GB]>[FA][FA] [FA]2 |[M:1/8] [DF] | %8
[M:3/4] [FA]>G G G2 G | [EG][DF] [DF]A AD |[M:3/8] E3 | [Ge]2 d |[M:3/4] c>c c c2 c | %13
 [Ac]>[GB] [GB] [GB]2 [GB] | B2 B B2 [DA] |[M:5/8] [EG]-[EG]- [EG]3 |[M:1/8] [DF]/[DF]/ | %17
[M:3/4] [FA]2 [DF] [FA]2 [EG]/[FA]/ |[M:13/16] [GB]3/2[GB]>G[GB]-<[GB][GB] | %19
[M:3/4] [GB]>[EG] [GB][GB]/[FA]/- [FA]F |[M:5/8] E-E- E3 |] %21
V:2
 z3 z2 [E,G,] | [E,B,E]>[E,B,D][E,B,E] [B,,B,]2 [B,,B,] |[M:5/8] [B,,B,]>[B,,B,][B,,B,] [E,B,]2 | %3
[M:1/8] [E,E] |[M:3/4][K:treble] [A,EA]>[A,C] [A,EA][A,EA]- [A,EA]/[A,DA]/[A,CA] | %5
 [E,E]4- [E,E][E,B,] |[M:5/8] [B,,B,]>[B,,B,][B,,B,] [B,,B,]2 |[M:1/8] [B,,B,] | %8
[M:3/4] [E,B,]>[E,B,E] [E,B,E] [E,B,E]2 [E,B,E] | %9
 [B,,B,][B,,B,] [B,,B,][B,,F,B,] [B,,F,B,][B,,A,B,] |[M:3/8] [E,G,B,]3 | B,2[K:treble] [EB] | %12
[M:3/4] [A,EA]>[A,EA] [A,EA] [A,EA]2 [A,EA] | [E,E]>[E,E] [E,E] [E,E]2 [E,E] | %14
 [B,DA]2 [B,DA] [B,DA]2[K:bass] [B,,B,] |[M:5/8] [E,B,]-[E,B,]- [E,B,]3 |[M:1/8] [B,,B,]/[B,,B,]/ | %17
[M:3/4] [B,,B,]2 [B,,B,] [B,,B,]2 [E,B,] |[M:13/16] [E,E]3/2[E,E]>[E,E][E,E]-<[E,E][E,E] | %19
[M:3/4] [E,E]>[E,B,] [E,B,][B,,B,]/[B,,B,]/- [B,,B,][B,,A,B,] |[M:5/8] [G,B,]2 A, G,2 |] %21
V:3
 x6 | x6 |[M:5/8] x5 |[M:1/8] x |[M:3/4][K:treble] x6 | x6 |[M:5/8] x5 |[M:1/8] x |[M:3/4] x6 | %9
 x6 |[M:3/8] x3 | E,3[K:treble] |[M:3/4] x6 | x6 | x5[K:bass] x |[M:5/8] x5 |[M:1/8] x | %17
[M:3/4] x6 |[M:13/16] x13/2 |[M:3/4] x6 |[M:5/8] E,-E,- E,3 |] %21
V:4
 x6 | x6 |[M:5/8] x5 |[M:1/8] x |[M:3/4] x6 | x6 |[M:5/8] x5 |[M:1/8] x |[M:3/4] x6 | x6 | %10
[M:3/8] x3 | x3 |[M:3/4] x6 | x6 | x6 |[M:5/8] x5 |[M:1/8] x |[M:3/4] x6 |[M:13/16] x13/2 | %19
[M:3/4] x6 |[M:5/8] z2 C B,2 |] %21

